!!!!SEGMENT: pl-kk--kk-i-315--007_palestrina-giovanni-pierluigi-da--fasciculus-myrrhae.krn
!!!cenid: 16xx:1103
!!!COM: Palestrina, Giovanni Pierluigi da
!!!COM-rismid: pe1904
!!!CDT: ~1525-1594/02/02
!!!CNT: Italian
!!!OTL: Fasciculus myrrhae
!!!PDT:
!!!AGN: Sacred
!!!SMS-siglum: PL-Kk
!!!SMS-shelfmark: Kk.I.315
!!!SMS-shelfwork: 007 W
!!!SMS-variant:
!!!SMS-altvar:
!!!NIFC-rismid: 1001146824
!!!URL-scan: http://repozytorium.nifc.pl/skany/pl-kk-nut--i-315
!!!ONB-nifc: UWAGA: motety w zbiorze: 1. Osculetur me, 2. Trahe me post curremus, 3. Nigra sum sed formosa, 4. Vineam meam, 5. Si ignoras te o pulchra, 6. Pulchrae sunt genae tuae, 7. Fasciculus myrrhae, 8. Ecce tu pulcher es, 9. Tota pulchra es amica mea, 10. Vulnerasti cor meum, 11. Sicut lilium inter spinas, 12. Introduxit me rex, 13. Laeva ejus, 14. Vox dilecti mei
!!!AIN: 1 alto
!!!key:
**kern	**text
*Ialto	*
*I"Alto	*
*I'A	*
*clefC2	*
*k[b-]	*
*d:	*
*M2/1	*
*met(C|)	*
=1-	=1-
!LO:TX:t=P:problem=znaki B- b- jeden nad drugim	!
0d	7 Fas-
=2-	=2-
2.a\	-ci-
4g\	-cu-
!LO:TX:t=P:global:problem=rozdzielacz słów	!
2a,<\	-lus
2.b-\	myr-
=3-	=3-
.	.
4a\	.
4g\	.
4f\	.
1g	.
=4-	=4-
2.f\	.
4e\	.
4f\	.
4e/	.
2d/	.
=5-	=5-
1A,<	-re
!LO:LB:g=original	!
2rc	.
2a\	fas-
=6-	=6-
2a\	-ci-
2e\	-cu-
1e,<	-lus
=7-	=7-
1b-	myr-
2a,<\	-re
2f\	Di-
=8-	=8-
2.a\	-lec-
4b-,<\	-tus
2cc\	me-
2a\	-us
=9-	=9-
1b-	mi-
*custos:f	*
2a,<\	-hi:
!LO:PB:g=original	!
2f\	Di-
=10-	=10-
2.a\	-lec-
4b-\	-tus
2cc\	me-
2a\	-us
=11-	=11-
2g\	mi-
1a	.
2g\	.
=12-	=12-
2a,<\	-hi
2a\	di-
2cc\	-lec-
2f\	-tus
=13-	=13-
2g\	me-
2f\	-us
1f	mi-
=14-	=14-
2f,<\	-hi
!LO:LB:g=original	!
2a\	in-
2g\	-ter
2.a\	u-
=15-	=15-
.	.
4a\	-be-
2g\	-ra
2a\	me-
2g,<\	-a
=16-	=16-
2a\	com-
2b-\	-mo-
4a\	-ra-
4g\	.
1g\	.
=17-	=17-
.	.
2f\	-bi-
!LO:TX:t=P:problem=kreska pseudotaktowa	!
1g	-tur
!LO:LB:g=original	!
=18-	=18-
0r	.
=19-	=19-
1r	.
1.cc	com-
=20-	=20-
.	.
2b-\	-mo-
2.a\	-ra-
4a\	-bi-
=21-	=21-
1f#X	-tur
0r	.
=22-	=22-
.	.
1re	.
=23-	=23-
2rd	.
2.d/	Bo-
4d/	-trus
2g\	cy-
=24-	=24-
2f#X,<\	-pri
2g\	di-
!LO:LB:g=original	!
4f#X\	-lec-
4g\	-tus
2e/	me-
=25-	=25-
2d,</	-us
2fny\	mi-
2.f\	.
4g\	.
=26-	=26-
2a,<\	-hi
2a\	in
2b-\	vi-
2b-\	-ne-
=27-	=27-
2a,<\	-is
2f\	en-
1g	-gad-
=28-	=28-
2f\	-di
!LO:LB:g=original	!
2f\	in
2f\	vi-
2g\	-ne-
=29-	=29-
2.f\	-is
4d/	en-
2.e-X/	-gad-
4d/	.
=30-	=30-
1c	.
0d	-di
=31-	=31-
.	.
*lig	*
1f	ec-
=32-	=32-
*col	*
2.g\	.
*Xlig	*
4f\	.
*Xcol	*
4eny/	.
4d/	.
2c/	.
=33-	=33-
2d,</	-ce
2g\	tu
!LO:LB:g=original	!
2g\	pul-
2f\	-chra
=34-	=34-
2g\	es
2a\	a-
2f\	-mi-
2g\	-ca
=35-	=35-
1a	me-
2a,<\	-a
2g\	a-
=36-	=36-
2a\	-mi-
2f\	-ca
4g\	me-
4a\	.
2.b-\	.
=37-	=37-
.	.
4a\	.
!LO:LB:g=original	!
1g	.
2f#X\	.
=38-	=38-
1g,<	-a
1g	ec-
=39-	=39-
4g\	-ce
4fny\	.
4e\	.
4d/	.
2c,</	.
2cc\	tu
=40-	=40-
4cc\	pul-
4b-\	.
4a\	.
4g\	.
2.f\	.
4g\	.
=41-	=41-
0a	.
=42-	=42-
1f	-chra
!LO:TX:t=P:problem=kreska pseudotaktowa	!
1r	.
!LO:LB:g=original	!
=43-	=43-
2r	.
2.a\	o-
4a\	-cu-
2a,<\	-li
=44-	=44-
2b-\	tu-
2g\	-i
2f\	co-
2g\	-lum-
=45-	=45-
2a\	-ba-
4g\	.
4f\	.
2.g\	.
4f\	.
=46-	=46-
1e	.
2d,</	-rum
2.b-\	o-
=47-	=47-
.	.
4b-\	-cu-
2b-,<\	-li
2a\	tu-
!LO:LB:g=original	!
2b-\	-i
=48-	=48-
2cc\	tu-
4b-\	.
4a\	.
2g\	.
2g\	-i
=49-	=49-
1.g	co-
4f\	-lum-
4e/	.
=50-	=50-
2f\	-ba-
2d/	-rum
2r	.
2.a\	o-
=51-	=51-
.	.
4a\	-cu-
2a\	-li
2cc\	tu-
2a,<\	-i
!LO:PB:g=original	!
=52-	=52-
2g\	co-
2a\	-lum-
2b-\	-ba-
4a\	.
4g\	.
=53-	=53-
2f#X\	.
1g	.
2f#X\	.
=54-	=54-
00g	-rum
==	==
*-	*-
!!!RDF**kern: < = below
!!!RDF**kern: l = terminal long
!!!ENC: Marta Lawrence
!!!END: 2021-03-29
!!!ENC: Kamil Watkowski
!!!END: 2021-03-18
